<?xml version="1.0" encoding="UTF-8"?>
<map version="1.10" tiledversion="1.12.2" orientation="orthogonal" renderorder="right-down" width="30" height="20" tilewidth="16" tileheight="16" infinite="0" nextlayerid="7" nextobjectid="74">
 <tileset firstgid="1" source="tilesets/Terrain.tsx"/>
 <tileset firstgid="243" source="tilesets/boxs.tsx"/>
 <tileset firstgid="249" source="tilesets/traps.tsx"/>
 <tileset firstgid="261" source="tilesets/checkpoints.tsx"/>
 <tileset firstgid="264" source="tilesets/fruits.tsx"/>
 <layer id="1" name="normal_tile" width="30" height="20">
  <data encoding="csv">
0,0,0,0,0,0,0,0,0,0,0,0,0,0,0,0,0,0,0,0,0,0,0,0,0,0,0,0,0,0,
0,0,0,0,0,0,0,0,0,0,0,0,0,0,0,0,0,0,0,0,0,0,0,0,0,0,0,0,0,0,
0,0,0,0,0,0,0,0,0,0,0,0,0,0,0,0,0,0,0,0,0,0,0,0,0,0,0,0,0,0,
0,0,0,0,0,0,0,0,0,0,0,0,0,0,0,0,0,0,0,0,0,0,0,0,0,0,0,0,0,0,
13,14,15,0,0,0,0,0,0,0,0,0,0,0,0,0,0,0,0,0,0,0,0,0,0,0,0,0,0,0,
31,16,0,0,0,0,0,0,0,0,0,0,0,0,0,0,0,0,0,0,0,0,0,0,0,0,0,0,0,0,
31,38,0,0,0,0,13,14,14,14,14,15,0,0,0,0,0,0,0,0,0,0,0,0,0,0,0,0,0,0,
31,60,0,0,0,0,0,0,0,0,35,8,8,8,9,35,0,0,0,0,0,0,0,0,0,0,0,0,0,0,
8,9,0,0,0,0,0,0,0,0,50,51,52,11,32,8,9,0,0,0,0,0,0,0,0,0,0,0,7,8,
30,31,0,0,0,0,0,0,0,0,0,0,150,51,52,11,32,8,9,40,41,42,0,0,0,0,0,0,29,30,
30,31,0,0,0,0,0,0,0,0,0,0,0,150,110,51,52,52,53,0,0,0,0,0,0,0,0,7,8,8,
30,31,0,0,0,0,0,0,0,0,0,0,0,0,128,129,130,0,0,0,0,0,0,0,0,0,0,29,30,30,
30,31,0,0,0,0,0,0,0,0,0,0,0,0,128,129,130,0,0,0,0,0,0,0,0,0,0,29,30,30,
30,31,0,0,0,0,0,0,0,0,0,0,0,0,128,129,130,0,0,0,0,0,0,0,7,8,8,9,30,30,
30,31,0,0,0,0,0,0,0,0,7,8,8,8,8,9,130,0,0,0,0,0,0,0,29,30,30,31,30,30,
30,31,0,0,0,0,0,0,6,7,8,8,8,33,30,31,130,0,0,0,0,0,0,0,29,30,30,31,35,16,
30,31,0,0,0,0,0,6,7,8,33,30,30,30,30,31,36,37,0,0,0,0,7,8,8,9,30,36,37,38,
30,31,0,0,0,0,6,7,8,33,30,30,30,30,30,31,58,59,35,0,0,0,29,30,30,31,30,58,59,60,
8,8,8,8,8,8,8,8,8,8,8,8,8,8,8,8,8,8,8,8,8,8,8,8,8,8,8,8,8,8,
30,30,30,30,30,30,30,30,30,30,30,30,30,30,30,30,30,30,30,30,30,30,30,30,30,30,30,30,30,30
</data>
 </layer>
 <objectgroup id="3" name="collision_normal_tile" visible="0">
  <object id="7" name="block" x="0" y="64" width="48" height="16"/>
  <object id="8" name="block" x="16" y="80" width="16" height="208"/>
  <object id="9" name="block" x="32" y="288" width="80" height="16"/>
  <object id="10" name="block" x="112" y="272" width="16" height="16"/>
  <object id="12" name="block" x="128" y="256" width="16" height="16"/>
  <object id="13" name="block" x="144" y="240" width="16" height="16"/>
  <object id="17" name="block" x="256" y="256" width="32" height="16"/>
  <object id="18" name="block" x="288" y="272" width="16" height="16"/>
  <object id="19" name="block" x="304" y="288" width="48" height="16"/>
  <object id="21" name="block" x="352" y="256" width="32" height="32"/>
  <object id="22" name="block" x="384" y="208" width="48" height="48"/>
  <object id="23" name="block" x="432" y="160" width="16" height="48"/>
  <object id="24" name="block" x="448" y="128" width="32" height="32"/>
  <object id="25" name="block" x="96" y="96" width="96" height="16"/>
  <object id="26" name="block" x="160" y="112" width="96" height="16"/>
  <object id="27" name="block" x="176" y="128" width="96" height="16"/>
  <object id="29" name="block" x="208" y="144" width="32" height="16"/>
  <object id="30" name="block" x="240" y="144" width="64" height="32"/>
  <object id="33" name="wood" x="304.875" y="144" width="46.875" height="5"/>
  <object id="34" name="block" x="160" y="224" width="96" height="32"/>
 </objectgroup>
 <objectgroup id="4" name="decoration_object_layer">
  <object id="36" gid="1073742080" x="64" y="48" width="38" height="38"/>
  <object id="37" gid="256" x="240" y="80" width="38" height="38"/>
  <object id="38" gid="1073742080" x="80" y="208" width="38" height="38"/>
  <object id="39" gid="256" x="416" y="80" width="38" height="38"/>
  <object id="40" gid="2147483904" x="320" y="240" width="38" height="38"/>
  <object id="47" gid="3221225728" x="304" y="144" width="24" height="24"/>
  <object id="48" gid="256" x="304" y="64" width="24" height="24"/>
  <object id="49" gid="256" x="144" y="64" width="24" height="24" rotation="90"/>
  <object id="50" gid="256" x="32" y="288" width="24" height="24"/>
  <object id="51" gid="258" x="352" y="128" width="54" height="52"/>
  <object id="52" gid="259" x="368" y="80" width="11" height="11"/>
  <object id="53" gid="259" x="368" y="80" width="11" height="11"/>
  <object id="55" gid="259" x="367.938" y="71.1875" width="11" height="11"/>
  <object id="56" gid="259" x="367.438" y="60.875" width="11" height="11"/>
  <object id="57" gid="259" x="367.375" y="51.5625" width="11" height="11"/>
  <object id="59" gid="1073742079" x="180.5" y="65.5" width="42" height="42"/>
  <object id="60" gid="250" x="288" y="31.5" width="32" height="8"/>
  <object id="61" gid="250" x="126" y="45.25" width="32" height="8"/>
  <object id="62" gid="250" x="76" y="157" width="12" height="8"/>
  <object id="63" gid="250" x="366.5" y="176" width="32" height="8"/>
 </objectgroup>
 <objectgroup id="5" name="decoration_object_layer_foreground"/>
 <objectgroup id="6" name="object_layer">
  <object id="64" gid="264" x="105" y="281" width="32" height="32"/>
  <object id="65" gid="1073742088" x="-7" y="71" width="32" height="32"/>
  <object id="66" name="apple" gid="2147483912" x="18.4068" y="76.9252" width="32" height="32" rotation="-30.689"/>
  <object id="67" gid="264" x="109.773" y="107.646" width="32" height="32" rotation="344.746"/>
  <object id="68" gid="261" x="394" y="208" width="33" height="33"/>
  <object id="69" gid="263" x="39" y="288" width="64" height="64"/>
  <object id="70" gid="262" x="166" y="224" width="64" height="64"/>
  <object id="71" gid="262" x="190" y="112" width="64" height="64"/>
  <object id="72" gid="246" x="329" y="290" width="28" height="24"/>
  <object id="73" gid="248" x="390" y="259" width="28" height="24"/>
 </objectgroup>
</map>
